storage/app/icons/phosphoricons/duotone/headset-duotone.svg

<svg xmlns="http://www.w3.org/2000/svg" fill="currentColor" viewBox="0 0 256 256"><path d="M80 144v40a16 16 0 0 1-16 16H48a16 16 0 0 1-16-16v-56h32a16 16 0 0 1 16 16m112-16a16 16 0 0 0-16 16v40a16 16 0 0 0 16 16h32v-72Z" opacity=".2"/><path d="M201.89 54.66A104.08 104.08 0 0 0 24 128v56a24 24 0 0 0 24 24h16a24 24 0 0 0 24-24v-40a24 24 0 0 0-24-24H40.36a88.12 88.12 0 0 1 150.18-54.07A87.4 87.4 0 0 1 215.65 120H192a24 24 0 0 0-24 24v40a24 24 0 0 0 24 24h24a24 24 0 0 1-24 24h-56a8 8 0 0 0 0 16h56a40 40 0 0 0 40-40v-80a103.4 103.4 0 0 0-30.11-73.34M64 136a8 8 0 0 1 8 8v40a8 8 0 0 1-8 8H48a8 8 0 0 1-8-8v-48Zm128 56a8 8 0 0 1-8-8v-40a8 8 0 0 1 8-8h24v56Z"/></svg>

<svg xmlns="http://www.w3.org/2000/svg" viewBox="0 0 256 256" fill="currentColor"><path d="M80,144v40a16,16,0,0,1-16,16H48a16,16,0,0,1-16-16V128H64A16,16,0,0,1,80,144Zm112-16a16,16,0,0,0-16,16v40a16,16,0,0,0,16,16h32V128Z" opacity="0.2"/><path d="M201.89,54.66A104.08,104.08,0,0,0,24,128v56a24,24,0,0,0,24,24H64a24,24,0,0,0,24-24V144a24,24,0,0,0-24-24H40.36A88.12,88.12,0,0,1,190.54,65.93,87.39,87.39,0,0,1,215.65,120H192a24,24,0,0,0-24,24v40a24,24,0,0,0,24,24h24a24,24,0,0,1-24,24H136a8,8,0,0,0,0,16h56a40,40,0,0,0,40-40V128A103.41,103.41,0,0,0,201.89,54.66ZM64,136a8,8,0,0,1,8,8v40a8,8,0,0,1-8,8H48a8,8,0,0,1-8-8V136Zm128,56a8,8,0,0,1-8-8V144a8,8,0,0,1,8-8h24v56Z"/></svg>
